!!!COM: Edgard [Edgar] (Victor Achille Charles) Varèse
!!!OTL: [T419_Var-w6p83h31m1-7]
**kern	**dynam	**kern	**dynam	**kern	**dynam	**kern	**dynam	**kern	**dynam	**kern	**dynam	**kern	**dynam	**kern	**dynam	**kern	**dynam	**kern	**dynam	**kern	**dynam
*grp:A	*grp:A	*grp:A	*grp:A	*grp:A	*grp:A	*grp:B	*grp:B	*grp:A	*grp:A	*grp:B	*grp:B	*grp:B	*grp:B	*grp:A	*grp:A	*grp:A	*grp:A	*grp:A	*grp:A	*grp:A	*grp:A
*part11	*part11	*part10	*part10	*part9	*part9	*part8	*part8	*part7	*part7	*part6	*part6	*part5	*part5	*part4	*part4	*part3	*part3	*part2	*part2	*part1	*part1
*staff11	*staff11	*staff10	*staff10	*staff9	*staff9	*staff8	*staff8	*staff7	*staff7	*staff6	*staff6	*staff5	*staff5	*staff4	*staff4	*staff3	*staff3	*staff2	*staff2	*staff1	*staff1
*I"Violoncello	*I"Violoncello	*I"Viola	*I"Viola	*I"Violin II	*I"Violin II	*I"Violin I	*I"Violin I	*I"Horn in F II. IV.	*I"Horn in F II. IV.	*I"Clarinet in Eb II.	*I"Clarinet in Eb II.	*I"Clarinet in Eb I.	*I"Clarinet in Eb I.	*I"Oboe II. III.	*I"Oboe II. III.	*I"Oboe I.	*I"Oboe I.	*I"Flute II.	*I"Flute II.	*I"Flute I.	*I"Flute I.
*I'Vc.	*	*I'Vla.	*	*I'Vln. II	*	*I'Vln. I	*	*I'Hn.	*	*I'Eb Cl.	*	*I'Eb Cl.	*	*I'Ob.	*	*I'Ob.	*	*I'Fl.	*	*I'Fl.	*
*clefC4	*	*clefC3	*	*clefG2	*	*clefG2	*	*clefG2	*	*clefG2	*	*clefG2	*	*clefG2	*	*clefG2	*	*clefG2	*	*clefG2	*
*	*	*	*	*	*	*	*	*ITrd4c7	*	*ITrd-2c-3	*	*ITrd-2c-3	*	*	*	*	*	*	*	*	*
*k[]	*	*k[]	*	*k[]	*	*k[]	*	*k[b-]	*	*k[b-e-a-]	*	*k[b-e-a-]	*	*k[]	*	*k[]	*	*k[]	*	*k[]	*
*	*	*	*	*	*	*	*	*	*	*	*	*	*	*	*	*	*	*	*	*	*
*M3/4	*	*M3/4	*	*M3/4	*	*M3/4	*	*M3/4	*	*M3/4	*	*M3/4	*	*M3/4	*	*M3/4	*	*M3/4	*	*M3/4	*
!!LO:REH:t=31
=1	=1	=1	=1	=1	=1	=1	=1	=1	=1	=1	=1	=1	=1	=1	=1	=1	=1	=1	=1	=1	=1
*	*	*	*	*	*	*	*	*^	*	*	*	*	*	*^	*	*	*	*	*	*	*
!LO:TUP:a	!	!LO:TUP:a	!	!LO:TUP:a	!	!	!	!LO:TX:a:t=[con sordina]	!	!LO:DY:ed=brack	!	!	!	!	!	!	!	!	!LO:DY:ed=brack	!	!	!LO:TX:t=[[quarter]=132]	!
!LO:N:vis=8%3	!	!LO:N:vis=8%3	!	!LO:N:vis=8%3	!	!	!	!LO:TX:b:rj:t=4.	!LO:N:vis=8%3	!	!	!	!	!	!LO:N:vis=8%3	!	!	!	!	!LO:N:vis=8%3	!	!	!
16%3fn'	p	16%3f#X'	p	16%3b'	p	4%3r	.	2.rbb	16%3f#X'	p	4%3r	.	4%3r	.	16%3b'	2.r	p	4%3r	p	16%3f'	p	4%3r	.
!LO:N:vis=8%3	!	!LO:N:vis=8%3	!	!LO:N:vis=8%3	!	!	!	!	!LO:N:vis=8%3	!	!	!	!	!	!LO:N:vis=8%3	!	!	!	!	!LO:N:vis=8%3	!	!	!
16%3f'	.	16%3f#'	.	16%3b'	.	.	.	.	16%3f#'	.	.	.	.	.	16%3b'	.	.	.	.	16%3f'	.	.	.
!LO:N:vis=8%3	!	!LO:N:vis=8%3	!	!LO:N:vis=8%3	!	!	!	!	!LO:N:vis=8%3	!	!	!	!	!	!LO:N:vis=8%3	!	!	!	!	!LO:N:vis=8%3	!	!	!
16%3f'	.	16%3f#'	.	16%3b'	.	.	.	.	16%3f#'	.	.	.	.	.	16%3b'	.	.	.	.	16%3f'	.	.	.
!LO:N:vis=8%3	!	!LO:N:vis=8%3	!	!LO:N:vis=8%3	!	!	!	!	!LO:N:vis=8%3	!	!	!	!	!	!LO:N:vis=8%3	!	!	!	!	!LO:N:vis=8%3	!	!	!
16%3f'	.	16%3f#'	.	16%3b'	.	.	.	.	16%3f#'	.	.	.	.	.	16%3b'	.	.	.	.	16%3f'	.	.	.
*	*	*	*	*	*	*	*	*	*	*	*	*	*	*	*v	*v	*	*	*	*	*	*	*
=2	=2	=2	=2	=2	=2	=2	=2	=2	=2	=2	=2	=2	=2	=2	=2	=2	=2	=2	=2	=2	=2	=2
!LO:TUP:a	!	!LO:TUP:a	!	!LO:TUP:a	!	!	!	!LO:TX:a:rj:t=2.	!	!	!	!	!	!	!	!	!LO:TUP:a	!	!	!	!	!
!LO:N:vis=8%3	!	!LO:N:vis=8%3	!	!LO:N:vis=8%3	!	!LO:TX:a:t=Pont.	!	!LO:N:vis=8%3	!	!	!	!	!LO:TX:a:t=shrill	!	!	!	!LO:N:vis=8%3	!	!	!	!LO:N:vis=8%3	!
16%3fn'	.	16%3f#X'	.	16%3b'	.	4g#X	f	16%3f#X'	2.rg	.	4r	.	4a-X'N	mp	4%3r	.	16%3b'	.	4%3r	.	16%3f'	p
!LO:N:vis=8%3	!	!LO:N:vis=8%3	!	!LO:N:vis=8%3	!	!	!	!LO:N:vis=8%3	!	!	!	!	!	!	!	!	!LO:N:vis=8%3	!	!	!	!LO:N:vis=8%3	!
16%3f'	.	16%3f#'	.	16%3b'	.	.	.	16%3f#'	.	.	.	.	.	.	.	.	16%3b'	.	.	.	16%3f'	.
.	.	.	.	.	.	4b-X	.	.	.	.	4r	.	4b-'	.	.	.	.	.	.	.	.	.
!LO:N:vis=8%3	!	!LO:N:vis=8%3	!	!LO:N:vis=8%3	!	!	!	!LO:N:vis=8%3	!	!	!	!	!	!	!	!	!LO:N:vis=8%3	!	!	!	!LO:N:vis=8%3	!
16%3f'	.	16%3f#'	.	16%3b'	.	.	.	16%3f#'	.	.	.	.	.	.	.	.	16%3b'	.	.	.	16%3f'	.
.	.	.	.	.	.	[4aa^	.	.	.	.	[4aaX^	sf >	[4aaX^	.	.	.	.	.	.	.	.	.
!LO:N:vis=8%3	!	!LO:N:vis=8%3	!	!LO:N:vis=8%3	!	!	!	!LO:N:vis=8%3	!	!	!	!	!	!	!	!	!LO:N:vis=8%3	!	!	!	!LO:N:vis=8%3	!
16%3f'	.	16%3f#'	.	16%3b'	.	.	.	16%3f#'	.	.	.	.	.	.	.	.	16%3b'	.	.	.	16%3f'	.
=3	=3	=3	=3	=3	=3	=3	=3	=3	=3	=3	=3	=3	=3	=3	=3	=3	=3	=3	=3	=3	=3	=3
*	*	*	*	*	*	*	*	*	*	*	*	*	*	*	*^	*	*	*	*	*	*	*
!LO:TUP:a	!	!LO:TUP:a	!	!LO:TUP:a	!	!	!	!	!	!	!	!	!	!	!	!	!	!	!	!	!	!	!
!LO:N:vis=8%3	!	!LO:N:vis=8%3	!	!LO:N:vis=8%3	!	!	!	!	!LO:N:vis=8%3	!	!	!	!	!	!LO:N:vis=8%3	!	!	!	!	!LO:N:vis=8%3	!	!	!
16%3fn'	.	16%3f#X'	.	16%3b'	.	2.aa_	.	2.r	16%3f#X'	.	4aa]	pp ]	2.aaX_	.	16%3b'	2.r	.	4%3r	.	16%3f'	.	4%3r	.
!LO:N:vis=8%3	!	!LO:N:vis=8%3	!	!LO:N:vis=8%3	!	!	!	!	!LO:N:vis=8%3	!	!	!	!	!	!LO:N:vis=8%3	!	!	!	!	!LO:N:vis=8%3	!	!	!
16%3f'	.	16%3f#'	.	16%3b'	.	.	.	.	16%3f#'	.	.	.	.	.	16%3b'	.	.	.	.	16%3f'	.	.	.
.	.	.	.	.	.	.	.	.	.	.	4r	.	.	.	.	.	.	.	.	.	.	.	.
!LO:N:vis=8%3	!	!LO:N:vis=8%3	!	!LO:N:vis=8%3	!	!	!	!	!LO:N:vis=8%3	!	!	!	!	!	!LO:N:vis=8%3	!	!	!	!	!LO:N:vis=8%3	!	!	!
16%3f'	.	16%3f#'	.	16%3b'	.	.	.	.	16%3f#'	.	.	.	.	.	16%3b'	.	.	.	.	16%3f'	.	.	.
.	.	.	.	.	.	.	.	.	.	.	4r	.	.	.	.	.	.	.	.	.	.	.	.
!LO:N:vis=8%3	!	!LO:N:vis=8%3	!	!LO:N:vis=8%3	!	!	!	!	!LO:N:vis=8%3	!	!	!	!	!	!LO:N:vis=8%3	!	!	!	!	!LO:N:vis=8%3	!	!	!
16%3f'	.	16%3f#'	.	16%3b'	.	.	.	.	16%3f#'	.	.	.	.	.	16%3b'	.	.	.	.	16%3f'	.	.	.
*	*	*	*	*	*	*	*	*	*	*	*	*	*	*	*v	*v	*	*	*	*	*	*	*
=4	=4	=4	=4	=4	=4	=4	=4	=4	=4	=4	=4	=4	=4	=4	=4	=4	=4	=4	=4	=4	=4	=4
!LO:TUP:a	!	!LO:TUP:a	!	!LO:TUP:a	!	!	!	!	!	!	!	!	!	!	!	!	!LO:TUP:a	!	!	!	!	!
!LO:N:vis=8%3	!	!LO:N:vis=8%3	!	!LO:N:vis=8%3	!	!	!	!LO:N:vis=8%3	!	!	!	!	!	!	!	!	!LO:N:vis=8%3	!	!	!	!LO:N:vis=8%3	!
16%3fn'	.	16%3f#X'	.	16%3b'	.	4aa]	.	16%3f#X'	2.rg	.	4%3r	.	4aaX]	.	4%3r	.	16%3b'	.	4%3r	.	16%3f'	.
!LO:N:vis=8%3	!	!LO:N:vis=8%3	!	!LO:N:vis=8%3	!	!	!	!LO:N:vis=8%3	!	!	!	!	!	!	!	!	!LO:N:vis=8%3	!	!	!	!LO:N:vis=8%3	!
16%3f'	.	16%3f#'	.	16%3b'	.	.	.	16%3f#'	.	.	.	.	.	.	.	.	16%3b'	.	.	.	16%3f'	.
.	.	.	.	.	.	4r	.	.	.	.	.	.	4r	.	.	.	.	.	.	.	.	.
!LO:N:vis=8%3	!	!LO:N:vis=8%3	!	!LO:N:vis=8%3	!	!	!	!LO:N:vis=8%3	!	!	!	!	!	!	!	!	!LO:N:vis=8%3	!	!	!	!LO:N:vis=8%3	!
16%3f'	.	16%3f#'	.	16%3b'	.	.	.	16%3f#'	.	.	.	.	.	.	.	.	16%3b'	.	.	.	16%3f'	.
.	.	.	.	.	.	(4g#X~	.	.	.	.	.	.	(4a-X	.	.	.	.	.	.	.	.	.
!LO:N:vis=8%3	!	!LO:N:vis=8%3	!	!LO:N:vis=8%3	!	!	!	!LO:N:vis=8%3	!	!	!	!	!	!	!	!	!LO:N:vis=8%3	!	!	!	!LO:N:vis=8%3	!
16%3f'	.	16%3f#'	.	16%3b'	.	.	.	16%3f#'	.	.	.	.	.	.	.	.	16%3b'	.	.	.	16%3f'	.
=5	=5	=5	=5	=5	=5	=5	=5	=5	=5	=5	=5	=5	=5	=5	=5	=5	=5	=5	=5	=5	=5	=5
*	*	*	*	*	*	*	*	*	*	*	*	*	*	*	*^	*	*	*	*	*	*	*
!LO:TUP:a	!	!LO:TUP:a	!	!LO:TUP:a	!	!	!	!	!	!	!	!	!	!	!	!	!	!	!	!	!	!	!
!LO:N:vis=8%3	!	!LO:N:vis=8%3	!	!LO:N:vis=8%3	!	!	!	!	!LO:N:vis=8%3	!	!	!	!	!	!LO:N:vis=8%3	!	!	!	!	!LO:N:vis=8%3	!	!	!
16%3fn'	.	16%3f#X'	.	16%3b'	.	4aa~	.	2.rbb	16%3f#X'	.	4%3r	.	4aaX	.	16%3b'	2.r	.	4%3r	.	16%3f'	.	4%3r	.
!LO:N:vis=8%3	!	!LO:N:vis=8%3	!	!LO:N:vis=8%3	!	!	!	!	!LO:N:vis=8%3	!	!	!	!	!	!LO:N:vis=8%3	!	!	!	!	!LO:N:vis=8%3	!	!	!
16%3f'	.	16%3f#'	.	16%3b'	.	.	.	.	16%3f#'	.	.	.	.	.	16%3b'	.	.	.	.	16%3f'	.	.	.
.	.	.	.	.	.	4g#X~	.	.	.	.	.	.	4a-X	.	.	.	.	.	.	.	.	.	.
!LO:N:vis=8%3	!	!LO:N:vis=8%3	!	!LO:N:vis=8%3	!	!	!	!	!LO:N:vis=8%3	!	!	!	!	!	!LO:N:vis=8%3	!	!	!	!	!LO:N:vis=8%3	!	!	!
16%3f'	.	16%3f#'	.	16%3b'	.	.	.	.	16%3f#'	.	.	.	.	.	16%3b'	.	.	.	.	16%3f'	.	.	.
.	.	.	.	.	.	4b-X~	.	.	.	.	.	.	4b-	.	.	.	.	.	.	.	.	.	.
!LO:N:vis=8%3	!	!LO:N:vis=8%3	!	!LO:N:vis=8%3	!	!	!	!	!LO:N:vis=8%3	!	!	!	!	!	!LO:N:vis=8%3	!	!	!	!	!LO:N:vis=8%3	!	!	!
16%3f'	.	16%3f#'	.	16%3b'	.	.	.	.	16%3f#'	.	.	.	.	.	16%3b'	.	.	.	.	16%3f'	.	.	.
*	*	*	*	*	*	*	*	*	*	*	*	*	*	*	*v	*v	*	*	*	*	*	*	*
=6	=6	=6	=6	=6	=6	=6	=6	=6	=6	=6	=6	=6	=6	=6	=6	=6	=6	=6	=6	=6	=6	=6
!LO:TUP:a	!	!LO:TUP:a	!	!LO:TUP:a	!	!	!	!	!	!	!	!	!	!	!	!	!LO:TUP:a	!	!	!	!	!
!LO:N:vis=8%3	!	!LO:N:vis=8%3	!	!LO:N:vis=8%3	!	!	!	!LO:N:vis=8%3	!	!	!	!	!	!	!	!	!LO:N:vis=8%3	!	!	!	!LO:N:vis=8%3	!
16%3fn'	.	16%3f#X'	.	16%3b'	.	8aa)	.	16%3f#X'	2.rg	.	4r	.	8aaX)	.	4%3r	.	16%3b'	.	4%3r	.	16%3f'	.
.	.	.	.	.	.	8r	.	.	.	.	.	.	8r	.	.	.	.	.	.	.	.	.
!LO:N:vis=8%3	!	!LO:N:vis=8%3	!	!LO:N:vis=8%3	!	!	!	!LO:N:vis=8%3	!	!	!	!	!	!	!	!	!LO:N:vis=8%3	!	!	!	!LO:N:vis=8%3	!
16%3f'	.	16%3f#'	.	16%3b'	.	.	.	16%3f#'	.	.	.	.	.	.	.	.	16%3b'	.	.	.	16%3f'	.
.	.	.	.	.	.	[2aa^	.	.	.	.	2aaX^	sf >	[2aa^	.	.	.	.	.	.	.	.	.
!LO:N:vis=8%3	!	!LO:N:vis=8%3	!	!LO:N:vis=8%3	!	!	!	!LO:N:vis=8%3	!	!	!	!	!	!	!	!	!LO:N:vis=8%3	!	!	!	!LO:N:vis=8%3	!
16%3f'	.	16%3f#'	.	16%3b'	.	.	.	16%3f#'	.	.	.	.	.	.	.	.	16%3b'	.	.	.	16%3f'	.
!LO:N:vis=8%3	!	!LO:N:vis=8%3	!	!LO:N:vis=8%3	!	!	!	!LO:N:vis=8%3	!	!	!	!	!	!	!	!	!LO:N:vis=8%3	!	!	!	!LO:N:vis=8%3	!
16%3f'	.	16%3f#'	.	16%3b'	.	.	.	16%3f#'	.	.	.	] pp	.	.	.	.	16%3b'	.	.	.	16%3f'	.
=7	=7	=7	=7	=7	=7	=7	=7	=7	=7	=7	=7	=7	=7	=7	=7	=7	=7	=7	=7	=7	=7	=7
*	*	*	*	*	*	*	*	*	*	*	*	*	*	*	*^	*	*	*	*	*	*	*
!LO:TUP:a	!	!LO:TUP:a	!	!LO:TUP:a	!	!	!	!	!	!	!	!	!	!	!	!	!	!	!	!	!	!	!
!LO:N:vis=8%3	!	!LO:N:vis=8%3	!	!LO:N:vis=8%3	!	!	!	!	!LO:N:vis=8%3	!	!	!	!	!	!LO:N:vis=8%3	!	!	!	!	!LO:N:vis=8%3	!	!	!
16%3fn'	.	16%3f#X'	.	16%3b'	.	2aa]	.	2.rbb	16%3f#X'	.	4%3r	.	2aaX]	.	16%3b'	2.r	.	4%3r	.	16%3f'	.	4%3r	.
!LO:N:vis=8%3	!	!LO:N:vis=8%3	!	!LO:N:vis=8%3	!	!	!	!	!LO:N:vis=8%3	!	!	!	!	!	!LO:N:vis=8%3	!	!	!	!	!LO:N:vis=8%3	!	!	!
16%3f'	.	16%3f#'	.	16%3b'	.	.	.	.	16%3f#'	.	.	.	.	.	16%3b'	.	.	.	.	16%3f'	.	.	.
!LO:N:vis=8%3	!	!LO:N:vis=8%3	!	!LO:N:vis=8%3	!	!	!	!	!LO:N:vis=8%3	!	!	!	!	!	!LO:N:vis=8%3	!	!	!	!	!LO:N:vis=8%3	!	!	!
16%3f'	.	16%3f#'	.	16%3b'	.	.	.	.	16%3f#'	.	.	.	.	.	16%3b'	.	.	.	.	16%3f'	.	.	.
.	.	.	.	.	.	[4g#X	.	.	.	.	.	.	[4a-	.	.	.	.	.	.	.	.	.	.
!LO:N:vis=8%3	!	!LO:N:vis=8%3	!	!LO:N:vis=8%3	!	!	!	!	!LO:N:vis=8%3	!	!	!	!	!	!LO:N:vis=8%3	!	!	!	!	!LO:N:vis=8%3	!	!	!
16%3f'	.	16%3f#'	.	16%3b'	.	.	.	.	16%3f#'	.	.	.	.	.	16%3b'	.	.	.	.	16%3f'	.	.	.
*	*	*	*	*	*	*	*	*v	*v	*	*	*	*	*	*v	*v	*	*	*	*	*	*	*
=	=	=	=	=	=	=	=	=	=	=	=	=	=	=	=	=	=	=	=	=	=
*-	*-	*-	*-	*-	*-	*-	*-	*-	*-	*-	*-	*-	*-	*-	*-	*-	*-	*-	*-	*-	*-
!!!system-decoration: [s1,s2,s3,s4,s5,s6],[s7],[s8,s9,s10,s11]
!!!RDF**kern: N = editorial accidental parenthesis
!!!EED1: Rafael Laurindo
!!!EED2: Gabriella Vici
!!!EEV2: 2022/02/08
